X: 12071
T: Esther's
R: reel
M: 4/4
K: Edorian
|:^D|[E4B4] B3 c|dD D/D/D ADFD|E2 F/G/A BAGF|GBAF GE E/E/:|
|:E|e2 ge fg a/g/f|efge fd d/d/f|g2 f/e/d e/f/g fe|dBAF GE E/E/:|

